src/assets/img/providers/quickfire.svg

<svg width="88" height="30" viewBox="0 0 88 30" fill="none" xmlns="http://www.w3.org/2000/svg">
<g clip-path="url(#clip0_4134_9298)">
<path fill-rule="evenodd" clip-rule="evenodd" d="M10.4776 12.5503L10.4776 12.55C10.4821 12.1464 10.4866 11.7428 10.4866 11.3392C10.4631 11.33 10.4415 11.3227 10.4211 11.3157L10.4211 11.3157L10.421 11.3157L10.421 11.3157L10.421 11.3157L10.421 11.3157L10.421 11.3157L10.421 11.3157L10.421 11.3156L10.4209 11.3156L10.4209 11.3156C10.3895 11.3049 10.3608 11.2951 10.332 11.2811C10.2607 11.374 10.2013 11.4669 10.1419 11.5714C8.1807 15.1831 6.06509 18.7019 3.78301 22.1161C3.36701 22.7316 3.41455 23.1264 3.84247 23.6839C8.52539 29.8388 17.5942 31.4065 24.1554 27.1794C31.6077 22.3716 33.2477 12.5237 27.7323 5.6604C23.0739 -0.134525 14.5158 -1.70229 8.1094 2.22294C2.9154 5.40486 0.538242 10.1198 0.882934 16.1121C0.942319 17.0876 1.10878 18.0747 1.48909 19.027C1.51696 19.01 1.53973 18.997 1.55858 18.9862L1.5586 18.9862C1.60407 18.9601 1.62683 18.9471 1.64363 18.9225C3.7117 16.0309 5.67286 13.0927 7.51517 10.0617C8.71555 8.07586 9.83286 6.05524 10.8906 3.99971C11.3066 3.14032 12.1149 2.86163 12.8399 3.30294C13.4342 3.65132 13.5649 4.24363 13.5055 4.87071C13.351 6.50817 13.2202 8.14555 13.1727 9.79463C13.0895 12.8372 13.0776 15.8799 13.5887 18.8876C13.7313 19.7238 13.9334 20.5483 14.3494 21.3148C14.5515 21.698 14.801 21.7445 15.1457 21.4657C15.5617 21.1289 15.9064 20.7225 16.2155 20.3044C17.7725 18.1909 18.9729 15.8682 20.1139 13.534C20.5147 12.7109 20.8932 11.8712 21.2722 11.0302L21.2723 11.0301L21.2723 11.03L21.2724 11.0299L21.2724 11.0298L21.2725 11.0297L21.2725 11.0296L21.2726 11.0295L21.2726 11.0294L21.2726 11.0293L21.2727 11.0292C21.4443 10.6484 21.616 10.2674 21.79 9.88755C22.0039 9.4114 22.3723 9.12109 22.9192 9.07463C23.4777 9.01655 23.87 9.28363 24.1669 9.70171C24.356 9.98279 24.3748 10.3104 24.3934 10.6342V10.6343C24.3994 10.7386 24.4053 10.8425 24.4169 10.9443C24.7139 13.3482 25.1892 15.7173 26.3062 17.9122C26.5439 18.3767 26.8292 18.8179 27.15 19.236L27.155 19.242C27.3084 19.4263 27.4806 19.6332 27.2454 19.8516C27.0136 20.0684 26.8411 19.9171 26.678 19.774L26.678 19.774C26.6489 19.7485 26.6202 19.7234 26.5916 19.7005C26.4492 19.5844 26.3185 19.4683 26.1992 19.3406C24.8208 17.9586 23.9177 16.2863 23.1208 14.5444C23.1056 14.5096 23.0932 14.4727 23.0805 14.4351C23.0339 14.2971 22.9844 14.1504 22.7885 14.0682C21.9323 15.8915 21.0292 17.6799 19.9951 19.387L19.8856 19.5668C18.9951 21.0302 18.0953 22.5088 16.6909 23.5909C15.9421 24.1716 15.0982 24.4503 14.1355 24.2412C12.7805 23.9509 12.0911 22.9755 11.6276 21.8258C10.7718 19.7238 10.6054 17.4941 10.4985 15.276C10.4573 14.3674 10.4674 13.4589 10.4776 12.5503V12.5503V12.5503V12.5503V12.5503V12.5503V12.5503V12.5503V12.5503V12.5503V12.5503ZM35.2466 13.3865L35.2447 13.4418C35.2447 14.5451 35.3162 15.5554 35.5777 16.5309C35.9339 17.7851 36.647 18.7026 38.0262 19.0161C38.9638 19.2365 38.9647 19.2483 39.036 20.2212L39.0362 20.2239C39.1077 21.1297 39.5 21.5013 40.427 21.5245H41.3777C41.6393 21.5245 41.7224 21.3852 41.7224 21.1529C41.7224 20.9207 41.6393 20.7697 41.39 20.758H41.0331C39.9277 20.758 39.7854 20.5955 39.8208 19.5039C39.8324 19.2367 39.8923 19.1091 40.2008 19.0626C41.7223 18.8303 42.5662 17.8897 42.9231 16.4961C43.3862 14.6612 43.3862 12.8147 42.9823 10.9799C42.5785 9.19151 41.6508 8.29728 39.9393 8.12305C37.2177 7.84436 35.9223 8.91274 35.447 11.2354C35.2966 11.9696 35.2699 12.7259 35.2466 13.3865V13.3865ZM42.3552 12.7527L42.3553 12.753V12.7531C42.3704 13.0328 42.3853 13.3094 42.4116 13.5812C42.4026 13.7443 42.3953 13.9069 42.388 14.0689V14.0689C42.3471 14.9789 42.3071 15.8672 41.9839 16.7051C41.52 17.9013 40.6408 18.4703 39.2147 18.4703C37.8239 18.4703 36.8847 17.878 36.5047 16.647C35.9339 14.8006 35.9577 12.9077 36.3739 11.038C36.7539 9.33082 37.7293 8.69213 39.4877 8.76182C40.9977 8.8199 41.9247 9.69082 42.2216 11.3167C42.3037 11.7982 42.3297 12.2798 42.3552 12.7527ZM61.75 13.6042V8.84288C61.75 8.80742 61.7486 8.77121 61.7473 8.735C61.738 8.48669 61.7288 8.23896 62.1538 8.23896C62.5863 8.23896 62.5841 8.50152 62.5818 8.77234C62.5817 8.79197 62.5815 8.81164 62.5815 8.83126V13.8249C62.5815 13.8734 62.5736 13.9267 62.5656 13.9811C62.5409 14.148 62.515 14.3238 62.7123 14.3939C62.9044 14.4669 63.0778 14.3057 63.2227 14.1711C63.2391 14.1559 63.2551 14.141 63.2707 14.1268C64.1903 13.3782 65.1098 12.6098 66.0203 11.849L66.0221 11.8474L66.2546 11.6532L66.2964 11.6186C66.5083 11.4426 66.7267 11.2612 67.0392 11.3048C67.0879 11.3116 67.1427 11.3065 67.1974 11.3013C67.3293 11.2889 67.4604 11.2766 67.5023 11.4326C67.5534 11.5932 67.4099 11.7017 67.2856 11.7956C67.266 11.8104 67.2469 11.8248 67.2292 11.839C66.8977 12.1088 66.5695 12.3785 66.2412 12.6482C65.9335 12.9011 65.6258 13.1539 65.3153 13.4068C65.1852 13.5129 65.0572 13.6211 64.9294 13.7291L64.9292 13.7292L64.9291 13.7293C64.6371 13.9762 64.346 14.2223 64.0315 14.4403C63.6277 14.719 63.723 14.9049 64.0438 15.172C65.2026 16.1668 66.3375 17.184 67.4728 18.2016L67.5261 18.2494C67.5664 18.2862 67.6195 18.3235 67.6747 18.3624C67.8639 18.4955 68.0786 18.6466 67.8946 18.8533C67.6807 19.0972 67.253 19.0391 66.9677 18.8301C66.623 18.5663 66.3076 18.2811 65.987 17.9913C65.8984 17.9111 65.8094 17.8306 65.7192 17.7501C65.3026 17.3817 64.8884 17.0134 64.4743 16.6451C64.0267 16.247 63.5791 15.8488 63.1284 15.4507C63.1047 15.4296 63.081 15.4063 63.057 15.3826L63.0569 15.3826C62.9486 15.2759 62.8345 15.1635 62.6884 15.23C62.5389 15.294 62.5513 15.4443 62.5634 15.5903C62.5667 15.6298 62.57 15.6691 62.57 15.7062V18.3191C62.57 18.3521 62.5708 18.3856 62.5717 18.4191C62.5786 18.6929 62.5857 18.9694 62.13 18.9694C61.7107 18.9594 61.7226 18.7083 61.734 18.4682C61.7358 18.4295 61.7377 18.3911 61.7377 18.354C61.7377 17.5643 61.7407 16.7717 61.7438 15.9791C61.7469 15.1865 61.75 14.3939 61.75 13.6042ZM84.0256 15.3372C84.2699 15.3359 84.5147 15.3346 84.7608 15.3346H86.9C87.1492 15.3346 87.3992 15.3346 87.3992 14.9978C87.3992 14.844 87.404 14.6893 87.4088 14.5343L87.4088 14.534C87.4225 14.0923 87.4362 13.6477 87.34 13.2094C87.0785 11.9668 86.3292 11.3165 85.0223 11.1888C84.6415 11.1423 84.2731 11.1539 83.8931 11.1888C82.7754 11.3165 82.0146 11.8739 81.67 12.9191C81.2069 14.3126 81.2308 15.7411 81.6823 17.1346C82.0508 18.2843 82.9185 18.8998 84.1069 19.0856C85.0338 19.2366 85.9608 19.1553 86.8761 18.9927C87.1615 18.9462 87.3161 18.8185 87.2684 18.5282C87.2268 18.2543 87.022 18.2728 86.836 18.2896C86.8091 18.2921 86.7825 18.2945 86.7569 18.2959C86.5551 18.3104 86.3511 18.3348 86.1468 18.3593L86.1467 18.3593C85.858 18.3938 85.5686 18.4285 85.2831 18.4353C83.3938 18.4818 82.3477 17.5643 82.1815 15.7411C82.1454 15.4159 82.2523 15.3346 82.5615 15.3346C83.0522 15.3424 83.5378 15.3398 84.025 15.3372H84.0251H84.0251H84.0252H84.0253H84.0254H84.0254H84.0255H84.0256ZM86.1985 14.6727H84.3561C84.1585 14.6727 83.9607 14.6701 83.7629 14.6675H83.7628H83.7627H83.7626H83.7626H83.7625H83.7624H83.7623H83.7622C83.366 14.6624 82.9698 14.6572 82.5738 14.6727C82.2169 14.6843 82.1215 14.5449 82.1815 14.2314C82.1992 14.1385 82.214 14.0427 82.2288 13.9468C82.2437 13.851 82.2585 13.7552 82.2762 13.6623C82.5138 12.2455 83.4646 11.6301 84.9746 11.8739C86.1154 12.0597 86.7931 13.1165 86.6031 14.3823C86.5669 14.6611 86.4123 14.6727 86.1985 14.6727ZM49.6977 18.3425C48.9016 19.4109 45.9177 19.2716 45.1931 18.6444C44.7054 18.2263 44.5154 17.6922 44.5154 17.0999C44.5096 16.2231 44.5096 15.3434 44.5096 14.4623C44.5096 13.5811 44.5096 12.6985 44.5039 11.816C44.5039 11.5024 44.5746 11.2933 44.9554 11.305C45.3208 11.3155 45.3166 11.5446 45.3124 11.7688V11.7689V11.7691V11.7693V11.7695C45.312 11.7929 45.3116 11.8162 45.3116 11.8392V16.8793C45.3116 17.8547 45.7162 18.2844 46.7023 18.4122C46.8454 18.4354 46.9762 18.447 47.1185 18.4587C49.1154 18.5515 49.6862 18.0057 49.6977 16.0663V11.8857C49.6977 11.8613 49.6974 11.8369 49.697 11.8125C49.6934 11.5468 49.6899 11.2933 50.1254 11.2933C50.5229 11.3041 50.5205 11.5448 50.5181 11.7928L50.5178 11.8235L50.5177 11.8508V18.4006C50.5177 18.4307 50.5189 18.4617 50.5201 18.4931C50.5283 18.7037 50.5369 18.9276 50.1854 18.958C49.7808 19.016 49.6623 18.8187 49.6977 18.3425ZM55.153 12.5476C54.773 13.3141 54.7138 14.1386 54.7015 14.9748C54.69 15.6367 54.7607 16.287 54.9515 16.9258C55.3077 18.1799 56.1515 18.9 57.4592 19.0858C58.3384 19.2135 59.23 19.1555 60.1092 18.9928C60.3946 18.9464 60.6323 18.8768 60.5615 18.5284C60.4957 18.2076 60.2486 18.251 60.043 18.2871L60.0428 18.2871L60.0424 18.2872C60.0248 18.2903 60.0076 18.2933 59.9907 18.2961C59.3015 18.4006 58.6238 18.4819 57.9223 18.4122C56.8054 18.3077 56.0569 17.7038 55.7354 16.6586C55.4507 15.718 55.4507 14.7541 55.6169 13.7902C55.89 12.1876 56.7461 11.6186 58.3861 11.8973C59.3254 12.0598 59.753 12.5244 59.8007 13.4651L59.803 13.4881C59.8256 13.7233 59.8466 13.9412 60.1692 13.9412C60.5138 13.9528 60.5846 13.7321 60.5846 13.4418C60.6084 12.2921 60.0623 11.5721 58.9207 11.2818C58.1838 11.096 57.4354 11.096 56.6984 11.2934C55.9854 11.4792 55.4738 11.8973 55.153 12.5476ZM69.9732 14.7405V14.74V14.7396V14.7393V14.739V14.7387V14.7384C69.9711 14.0112 69.9689 13.2825 69.9869 12.5471C69.9985 12.1407 69.9154 11.9549 69.44 11.9665C69.3834 11.9688 69.3169 11.9798 69.2467 11.9914C68.9634 12.0383 68.62 12.0951 68.62 11.6297C68.62 11.1885 68.9287 11.2367 69.2072 11.2803C69.2952 11.294 69.3802 11.3073 69.4515 11.3045C69.8561 11.2929 70.01 11.1884 69.9869 10.782C69.9031 8.51743 70.6046 8.19228 72.9338 8.22705C73.1008 8.22705 73.2669 8.23866 73.3146 8.42451C73.3738 8.66836 73.35 8.90066 73.0177 8.94712C72.9197 8.96447 72.8148 8.96234 72.7085 8.96019C72.6729 8.95946 72.6372 8.95874 72.6015 8.95874C70.9846 8.98189 70.6638 9.33035 70.7708 10.9213C70.7946 11.2349 70.9138 11.3161 71.1992 11.3045C71.5908 11.2929 71.9954 11.2929 72.3877 11.3045C72.423 11.3045 72.4601 11.303 72.4977 11.3015C72.7385 11.2919 73.0022 11.2813 72.9815 11.6529C72.9615 11.9943 72.7238 11.9916 72.4859 11.9889C72.4406 11.9884 72.3953 11.9879 72.3515 11.9897C72.1777 11.9975 72.0092 11.9949 71.839 11.9923H71.8389L71.8388 11.9923C71.753 11.991 71.6668 11.9897 71.5792 11.9897C71.489 11.9909 71.4086 11.991 71.3372 11.9911C71.04 11.9916 70.896 11.9918 70.8273 12.0639C70.7627 12.1316 70.7647 12.2628 70.7685 12.5174V12.5175C70.7696 12.5874 70.7708 12.6665 70.7708 12.7562V18.1447V18.551C70.7708 18.8182 70.6761 18.9807 70.3554 18.9807C70.01 18.9807 69.9631 18.7834 69.9631 18.5279C69.9746 17.5059 69.9746 16.4724 69.9746 15.4504C69.9746 15.2143 69.9739 14.9783 69.9732 14.742V14.7415V14.741V14.7405ZM80.6716 11.1538C79.6377 11.1074 78.6516 11.1887 77.867 12.1525C77.8502 12.0221 77.8391 11.9489 77.8301 11.8887L77.83 11.8883L77.83 11.8881L77.8296 11.8855L77.8239 11.8476L77.8193 11.8158C77.8431 11.5022 77.7477 11.2932 77.3677 11.3048C77.0094 11.3151 77.0155 11.5349 77.0215 11.7544C77.0223 11.7828 77.0231 11.8111 77.0231 11.839V13.8713V13.8741C77.0231 15.4061 77.0231 16.9265 77.0108 18.4585C77.0108 18.8533 77.13 19.0623 77.5577 18.9578C77.8534 18.8808 77.8387 18.6603 77.8249 18.4549L77.8249 18.4547C77.8221 18.4122 77.8193 18.3704 77.8193 18.3307C77.8227 17.877 77.8231 17.4233 77.8234 16.9698V16.9697V16.9696V16.9695V16.9694C77.8243 15.891 77.8253 14.8144 77.867 13.7435C77.9023 12.7332 78.4139 12.199 79.3408 11.9435C79.7685 11.8274 80.2085 11.8506 80.6362 11.8855C80.957 11.9087 81.0639 11.7693 81.0877 11.4906C81.1216 11.1751 80.9145 11.1654 80.7124 11.1559L80.6716 11.1538ZM75.5731 15.172V18.4237L75.5731 18.4457C75.5734 18.7163 75.5737 18.9698 75.1685 18.9811C74.7524 18.9924 74.7527 18.729 74.7531 18.4581L74.7531 18.4353C74.7531 17.9338 74.7523 17.4323 74.7515 16.931C74.7492 15.4588 74.7468 13.9883 74.7646 12.5243C74.7646 12.141 74.6815 11.9436 74.2415 11.9901C73.9923 12.0249 73.7423 11.9785 73.7308 11.6533C73.7191 11.3022 73.9842 11.3035 74.2334 11.3047L74.2769 11.3049C74.4471 11.3062 74.5951 11.3051 74.7238 11.3041C75.1682 11.3008 75.3827 11.2992 75.4839 11.4055C75.5782 11.5045 75.5742 11.6974 75.5664 12.07C75.5638 12.193 75.5608 12.3357 75.5608 12.501C75.5788 13.1759 75.5766 13.8507 75.5745 14.5205V14.5221C75.5738 14.7393 75.5731 14.956 75.5731 15.172ZM53.5131 18.4585V15.1487C53.5131 14.8593 53.5157 14.5698 53.5183 14.28V14.2799L53.5183 14.2786C53.5236 13.6967 53.529 13.113 53.5131 12.5242C53.5069 12.2736 53.5122 12.0736 53.5165 11.9142C53.5243 11.6232 53.5285 11.467 53.4526 11.3839C53.3646 11.2875 53.1691 11.2893 52.7468 11.2932C52.5857 11.2946 52.3915 11.2964 52.1577 11.2932C51.9323 11.2932 51.7061 11.2932 51.6946 11.6068C51.6707 11.9319 51.8846 12.0132 52.1461 11.9784C52.6692 11.8971 52.7046 12.1758 52.7046 12.5822C52.6868 14.0465 52.6891 15.5042 52.6915 16.9603V16.9606V16.9608V16.9614V16.962C52.6923 17.4571 52.693 17.952 52.693 18.4469C52.693 18.7604 52.7523 18.9926 53.1446 18.981C53.5156 18.981 53.5144 18.7421 53.5132 18.5001L53.5131 18.4585ZM75.8223 8.84265C75.7631 9.26073 75.5369 9.56265 75.0615 9.57427C74.5862 9.58588 74.3246 9.33042 74.2892 8.87749C74.2539 8.45942 74.6339 8.05296 75.05 8.0878C75.5015 8.12265 75.7515 8.38973 75.8223 8.84265ZM52.99 9.56314C53.4654 9.56314 53.7154 9.30767 53.7623 8.87798C53.7508 8.39021 53.4777 8.14637 53.0254 8.07668C52.6215 8.03021 52.1938 8.42506 52.2292 8.83152C52.2654 9.27283 52.5146 9.56314 52.99 9.56314Z" fill="#919EAB"/>
</g>
<defs>
<clipPath id="clip0_4134_9298">
<rect width="87.6923" height="30" fill="white" transform="translate(0.153839)"/>
</clipPath>
</defs>
</svg>

<svg width="88" height="30" fill="none" xmlns="http://www.w3.org/2000/svg"><g clip-path="url(#a)"><path fill-rule="evenodd" clip-rule="evenodd" d="M10.478 12.55c.004-.404.009-.807.009-1.21-.024-.01-.046-.017-.066-.024a.755.755 0 0 1-.089-.035c-.071.093-.13.186-.19.29a134.215 134.215 0 0 1-6.359 10.545c-.416.616-.368 1.01.06 1.568 4.682 6.155 13.751 7.723 20.312 3.495 7.453-4.807 9.093-14.655 3.577-21.519C23.074-.135 14.516-1.702 8.11 2.223 2.915 5.405.54 10.12.883 16.113c.06.975.226 1.962.606 2.914.028-.017.05-.03.07-.04.045-.027.068-.04.085-.064a142.07 142.07 0 0 0 5.871-8.861C8.715 8.076 9.833 6.055 10.891 4c.416-.86 1.224-1.138 1.949-.697.594.348.725.94.665 1.568-.154 1.637-.285 3.275-.332 4.924-.084 3.042-.095 6.085.416 9.093.142.836.344 1.66.76 2.427.203.383.452.43.797.15.416-.336.76-.742 1.07-1.16 1.556-2.114 2.757-4.437 3.898-6.771.4-.823.78-1.663 1.158-2.504.172-.382.344-.763.518-1.142.214-.477.582-.767 1.13-.813.558-.058.95.209 1.247.627.189.28.208.608.226.932.006.105.012.208.024.31.297 2.404.772 4.773 1.89 6.968.237.465.522.906.843 1.324l.005.006c.153.184.326.391.09.61-.231.216-.404.065-.567-.078a2.59 2.59 0 0 0-.086-.073 3.915 3.915 0 0 1-.393-.36c-1.378-1.382-2.281-3.055-3.078-4.797-.015-.034-.028-.071-.04-.109-.047-.138-.097-.285-.293-.367-.856 1.824-1.759 3.612-2.793 5.319l-.11.18c-.89 1.463-1.79 2.942-3.194 4.024-.749.58-1.593.86-2.555.65-1.355-.29-2.045-1.265-2.508-2.415-.856-2.102-1.023-4.332-1.13-6.55a48.194 48.194 0 0 1-.02-2.726Zm24.769.836-.002.056c0 1.103.071 2.113.333 3.089.356 1.254 1.069 2.172 2.448 2.485.938.22.939.232 1.01 1.205v.003c.072.906.464 1.277 1.391 1.3h.95c.262 0 .345-.139.345-.371 0-.232-.083-.383-.332-.395h-.357c-1.105 0-1.248-.162-1.212-1.254.011-.267.071-.395.38-.441 1.521-.233 2.365-1.173 2.722-2.567.463-1.835.463-3.681.06-5.516-.404-1.788-1.332-2.683-3.044-2.857-2.721-.279-4.017.79-4.492 3.112-.15.735-.177 1.49-.2 2.152Zm7.108-.633c.015.28.03.556.057.828-.01.163-.017.326-.024.488-.04.91-.08 1.798-.404 2.636-.464 1.196-1.343 1.765-2.77 1.765-1.39 0-2.33-.592-2.71-1.823-.57-1.846-.546-3.74-.13-5.609.38-1.707 1.355-2.346 3.114-2.276 1.51.058 2.437.929 2.734 2.555.082.481.108.963.133 1.436Zm19.395.851V8.843l-.003-.108c-.009-.248-.018-.496.407-.496.432 0 .43.263.428.533v5.053c0 .048-.008.102-.016.156-.025.167-.051.343.146.413.192.073.366-.088.51-.223l.049-.044c.92-.749 1.839-1.517 2.75-2.278l.001-.002.233-.194.041-.034c.212-.176.43-.358.743-.314a.705.705 0 0 0 .158-.004c.132-.012.263-.024.305.132.051.16-.092.269-.216.363l-.057.043c-.331.27-.66.54-.988.81-.308.252-.615.505-.926.758-.13.106-.258.214-.386.322a11.94 11.94 0 0 1-.898.711c-.403.279-.308.465.013.732 1.159.995 2.294 2.012 3.429 3.03l.053.047c.04.037.094.075.149.113.189.134.404.285.22.491-.214.244-.642.186-.927-.023-.345-.264-.66-.549-.981-.839l-.268-.24-1.245-1.106c-.447-.398-.895-.796-1.346-1.194a1.938 1.938 0 0 1-.071-.068c-.108-.107-.223-.22-.369-.153-.15.064-.137.214-.125.36.004.04.007.08.007.116v2.613c0 .033 0 .067.002.1.007.274.014.55-.442.55-.42-.01-.407-.26-.396-.5.002-.04.004-.078.004-.115 0-.79.003-1.582.006-2.375.003-.792.006-1.585.006-2.375Zm22.276 1.733.735-.002H86.9c.25 0 .5 0 .5-.337 0-.154.004-.309.009-.464.013-.442.027-.886-.069-1.325-.261-1.242-1.01-1.893-2.318-2.02a5.237 5.237 0 0 0-1.129 0c-1.118.127-1.878.685-2.223 1.73-.463 1.394-.44 2.822.012 4.216.369 1.15 1.236 1.765 2.425 1.95.927.152 1.854.07 2.77-.092.285-.047.44-.174.391-.465-.041-.274-.246-.255-.432-.238a12.947 12.947 0 0 0-.69.07c-.288.034-.577.069-.863.075-1.89.047-2.935-.87-3.102-2.694-.036-.325.071-.406.38-.406.491.007.977.005 1.464.002Zm2.172-.664h-1.842c-.197 0-.395-.003-.593-.005-.397-.006-.793-.01-1.19.005-.356.011-.451-.128-.391-.442.017-.092.032-.188.047-.284.015-.096.03-.192.047-.285.238-1.417 1.189-2.032 2.699-1.788 1.14.186 1.818 1.242 1.628 2.508-.036.28-.19.29-.404.29Zm-36.5 3.67c-.796 1.068-3.78.929-4.505.301-.488-.418-.678-.952-.678-1.544-.005-.877-.005-1.757-.005-2.638 0-.88 0-1.764-.006-2.646 0-.314.07-.523.451-.511.366.01.362.24.357.464v5.11c0 .976.404 1.405 1.39 1.533.143.023.274.035.416.047 1.997.093 2.568-.453 2.58-2.393v-4.18l-.001-.073c-.004-.266-.007-.52.428-.52.398.011.395.252.393.5V18.4c0 .03 0 .06.002.092.008.21.017.435-.335.465-.404.058-.523-.14-.487-.615Zm5.455-5.795c-.38.766-.44 1.59-.451 2.427-.012.662.059 1.312.25 1.95.356 1.255 1.2 1.975 2.507 2.16.88.128 1.771.07 2.65-.092.286-.047.523-.116.453-.465-.066-.32-.313-.277-.519-.24a5.185 5.185 0 0 1-.052.008c-.69.105-1.367.186-2.069.116-1.117-.104-1.865-.708-2.187-1.753-.284-.941-.284-1.905-.118-2.869.273-1.602 1.13-2.171 2.77-1.893.938.163 1.366.627 1.414 1.568l.002.023c.023.235.044.453.366.453.345.012.416-.209.416-.5.023-1.149-.523-1.869-1.664-2.16a4.368 4.368 0 0 0-2.223.012c-.713.186-1.224.604-1.545 1.255Zm14.82 2.193v-.002c-.002-.728-.004-1.457.014-2.192.012-.406-.072-.592-.547-.58-.057.002-.123.013-.193.024-.284.047-.627.104-.627-.361 0-.442.309-.393.587-.35.088.014.173.027.245.025.404-.012.558-.117.535-.523-.084-2.265.618-2.59 2.947-2.555.167 0 .333.012.38.198.06.243.036.476-.296.522-.098.017-.203.015-.31.013a5.22 5.22 0 0 0-.106-.001c-1.617.023-1.938.371-1.831 1.962.024.314.143.395.428.384a20.3 20.3 0 0 1 1.189 0l.11-.003c.24-.01.504-.02.483.35-.02.342-.257.34-.495.337h-.135c-.173.008-.342.006-.512.003a17.046 17.046 0 0 0-.26-.002l-.242.001c-.297 0-.441 0-.51.073-.064.068-.062.199-.058.453l.002.24v5.794c0 .267-.095.43-.416.43-.345 0-.392-.198-.392-.453.012-1.022.012-2.056.012-3.078l-.002-.708v-.001Zm10.699-3.587c-1.034-.047-2.02.035-2.805.998-.017-.13-.028-.203-.037-.263v-.003l-.006-.038-.005-.032c.024-.314-.071-.523-.451-.511-.359.01-.352.23-.346.45l.001.084v2.035c0 1.532 0 3.053-.012 4.585 0 .394.119.603.547.499.295-.077.28-.298.267-.503-.003-.043-.006-.085-.006-.124.004-.454.004-.908.004-1.361.001-1.079.002-2.156.044-3.226.035-1.01.547-1.545 1.474-1.8.428-.117.868-.093 1.295-.059.321.024.428-.116.452-.394.034-.316-.173-.326-.376-.335l-.04-.002Zm-5.099 4.018V18.446c0 .27 0 .524-.404.535-.417.011-.416-.252-.416-.523v-.023c0-.501 0-1.003-.002-1.504-.002-1.472-.004-2.943.014-4.407 0-.383-.084-.58-.523-.534-.25.035-.5-.011-.511-.337-.012-.35.253-.35.502-.348h.491c.444-.004.659-.006.76.1.094.1.09.292.082.665-.002.123-.005.266-.005.431.018.675.016 1.35.013 2.02v.651Zm-22.06 3.287v-3.31c0-.29.003-.58.005-.869v-.001c.006-.582.011-1.166-.005-1.755-.006-.25 0-.45.004-.61.007-.29.011-.447-.064-.53-.088-.097-.284-.095-.706-.09-.161 0-.355.002-.59 0-.225 0-.45 0-.462.313-.024.325.19.406.451.371.523-.08.559.198.559.604a316.692 316.692 0 0 0-.014 4.378v.002l.002 1.485c0 .313.06.546.452.534.37 0 .37-.239.368-.48v-.043Zm22.31-9.616c-.06.418-.286.72-.761.731-.476.012-.737-.244-.773-.697-.035-.418.345-.824.761-.79.451.036.701.303.772.756Zm-22.833.72c.475 0 .725-.255.772-.685-.011-.488-.284-.732-.737-.801-.404-.047-.831.348-.796.755.036.44.286.731.761.731Z" fill="#919EAB"/></g><defs><clipPath id="a"><path fill="#fff" transform="translate(.154)" d="M0 0h87.692v30H0z"/></clipPath></defs></svg>
